svgs/sharp-solid/circle-microphone-lines.svg

<svg xmlns="http://www.w3.org/2000/svg" viewBox="0 0 512 512"><!--! Font Awesome Pro 6.6.0 by @fontawesome - https://fontawesome.com License - https://fontawesome.com/license (Commercial License) Copyright 2024 Fonticons, Inc. --><path d="M0 256a256 256 0 1 1 512 0A256 256 0 1 1 0 256zM208 96l0 160c0 26.5 21.5 48 48 48s48-21.5 48-48l0-16-32 0-16 0 0-32 16 0 32 0 0-32-32 0-16 0 0-32 16 0 32 0 0-48-96 0zM160 240l0-16-32 0 0 16 0 16c0 65.3 48.9 119.1 112 127l0 17 0 16 32 0 0-16 0-17c63.1-7.9 112-61.7 112-127l0-16 0-16-32 0 0 16 0 16c0 53-43 96-96 96s-96-43-96-96l0-16z"/></svg>

<svg xmlns="http://www.w3.org/2000/svg" viewBox="0 0 512 512"><!--! Font Awesome Pro 6.4.0 by @fontawesome - https://fontawesome.com License - https://fontawesome.com/license (Commercial License) Copyright 2023 Fonticons, Inc. --><path d="M0 256a256 256 0 1 1 512 0A256 256 0 1 1 0 256zM208 96V256c0 26.5 21.5 48 48 48s48-21.5 48-48V240H272 256V208h16 32V176H272 256V144h16 32V96H208zM160 240V224H128v16 16c0 65.3 48.9 119.1 112 127v17 16h32V400 383c63.1-7.9 112-61.7 112-127V240 224H352v16 16c0 53-43 96-96 96s-96-43-96-96V240z"/></svg>
